docs/.gitbook/assets/icon-text-input-16@dark.svg

<svg width="32" height="32" viewBox="0 0 16 16" fill="none" xmlns="http://www.w3.org/2000/svg">
<rect x="0" y="0" width="16" height="16" fill="#181c1f"/>
<path fill-rule="evenodd" clip-rule="evenodd" d="M1.25 5C1.25 2.92893 2.92893 1.25 5 1.25H11C13.0711 1.25 14.75 2.92893 14.75 5V11C14.75 13.0711 13.0711 14.75 11 14.75H5C2.92893 14.75 1.25 13.0711 1.25 11V5ZM5 2.75C3.75736 2.75 2.75 3.75736 2.75 5V11C2.75 12.2426 3.75736 13.25 5 13.25H11C12.2426 13.25 13.25 12.2426 13.25 11V5C13.25 3.75736 12.2426 2.75 11 2.75H5ZM5.75 4.875C5.75 4.46079 6.08579 4.125 6.5 4.125H7.25C7.42545 4.125 7.59535 4.18651 7.73014 4.29883L8 4.52372L8.26986 4.29883C8.40465 4.18651 8.57455 4.125 8.75 4.125H9.5C9.91421 4.125 10.25 4.46079 10.25 4.875C10.25 5.28921 9.91421 5.625 9.5 5.625H9.02154L8.75 5.85128V10.1487L9.02154 10.375H9.5C9.91421 10.375 10.25 10.7108 10.25 11.125C10.25 11.5392 9.91421 11.875 9.5 11.875H8.75C8.57455 11.875 8.40465 11.8135 8.26986 11.7012L8 11.4763L7.73014 11.7012C7.59535 11.8135 7.42545 11.875 7.25 11.875H6.5C6.08579 11.875 5.75 11.5392 5.75 11.125C5.75 10.7108 6.08579 10.375 6.5 10.375H6.97846L7.25 10.1487V5.85128L6.97846 5.625H6.5C6.08579 5.625 5.75 5.28921 5.75 4.875Z" fill="#fff"/>
</svg>

<svg xmlns="http://www.w3.org/2000/svg" width="32" height="32" fill="none" viewBox="0 0 16 16"><path fill="#181c1f" d="M0 0h16v16H0z"/><path fill="#fff" fill-rule="evenodd" d="M1.25 5A3.75 3.75 0 0 1 5 1.25h6A3.75 3.75 0 0 1 14.75 5v6A3.75 3.75 0 0 1 11 14.75H5A3.75 3.75 0 0 1 1.25 11zM5 2.75A2.25 2.25 0 0 0 2.75 5v6A2.25 2.25 0 0 0 5 13.25h6A2.25 2.25 0 0 0 13.25 11V5A2.25 2.25 0 0 0 11 2.75zm.75 2.125a.75.75 0 0 1 .75-.75h.75a.75.75 0 0 1 .48.174l.27.225.27-.225a.75.75 0 0 1 .48-.174h.75a.75.75 0 0 1 0 1.5h-.478l-.272.226v4.298l.272.226H9.5a.75.75 0 0 1 0 1.5h-.75a.75.75 0 0 1-.48-.174L8 11.476l-.27.225a.75.75 0 0 1-.48.174H6.5a.75.75 0 0 1 0-1.5h.478l.272-.226V5.85l-.272-.226H6.5a.75.75 0 0 1-.75-.75" clip-rule="evenodd"/></svg>
